src/assets/svg/icons/fa/nuevos/classic/duotone/ruble-sign classic duotone.svg

<svg xmlns="http://www.w3.org/2000/svg" viewBox="0 0 384 512"><!--! Font Awesome Pro 6.4.0 by @fontawesome - https://fontawesome.com License - https://fontawesome.com/license (Commercial License) Copyright 2023 Fonticons, Inc. --><defs><style>.fa-secondary{opacity:.4}</style></defs><path class="fa-primary" d="M64 64c0-17.7 14.3-32 32-32H240c79.5 0 144 64.5 144 144s-64.5 144-144 144H128V448c0 17.7-14.3 32-32 32s-32-14.3-32-32V320H32c-17.7 0-32-14.3-32-32s14.3-32 32-32H64V64zm64 192H240c44.2 0 80-35.8 80-80s-35.8-80-80-80H128V256z"/><path class="fa-secondary" d="M64 352H32c-17.7 0-32 14.3-32 32s14.3 32 32 32H64V352zm64 64H288c17.7 0 32-14.3 32-32s-14.3-32-32-32H128v64z"/></svg>

<svg xmlns="http://www.w3.org/2000/svg" viewBox="0 0 384 512"><defs><style>.fa-secondary{opacity:.4}</style></defs><path class="fa-primary" d="M64 64C64 46.33 78.33 32 96 32H240C319.5 32 384 96.47 384 176C384 255.5 319.5 320 240 320H128V448C128 465.7 113.7 480 96 480C78.33 480 64 465.7 64 448V320H32C14.33 320 0 305.7 0 288C0 270.3 14.33 256 32 256H64V64zM128 256H240C284.2 256 320 220.2 320 176C320 131.8 284.2 96 240 96H128V256z"/><path class="fa-secondary" d="M64 416H32C14.33 416 0 401.7 0 384C0 366.3 14.33 352 32 352H64V416zM128 352H288C305.7 352 320 366.3 320 384C320 401.7 305.7 416 288 416H128V352z"/></svg>
